images/3233016.svg

<?xml version="1.0" encoding="UTF-8"?>
<svg xmlns="http://www.w3.org/2000/svg" xmlns:xlink="http://www.w3.org/1999/xlink" width="300pt" height="300pt" viewBox="0 0 300 300" version="1.1">
<defs>
<g>
<symbol overflow="visible" id="glyph0-0">
<path style="stroke:none;" d="M 0.453125 1.59375 L 0.453125 -6.34375 L 4.953125 -6.34375 L 4.953125 1.59375 Z M 0.953125 1.09375 L 4.453125 1.09375 L 4.453125 -5.84375 L 0.953125 -5.84375 Z M 0.953125 1.09375 "/>
</symbol>
<symbol overflow="visible" id="glyph0-1">
<path style="stroke:none;" d="M 3.546875 -5.953125 C 2.898438 -5.953125 2.382812 -5.710938 2 -5.234375 C 1.625 -4.753906 1.4375 -4.101562 1.4375 -3.28125 C 1.4375 -2.445312 1.625 -1.789062 2 -1.3125 C 2.382812 -0.832031 2.898438 -0.59375 3.546875 -0.59375 C 4.191406 -0.59375 4.703125 -0.832031 5.078125 -1.3125 C 5.453125 -1.789062 5.640625 -2.445312 5.640625 -3.28125 C 5.640625 -4.101562 5.453125 -4.753906 5.078125 -5.234375 C 4.703125 -5.710938 4.191406 -5.953125 3.546875 -5.953125 Z M 3.546875 -6.6875 C 4.460938 -6.6875 5.195312 -6.375 5.75 -5.75 C 6.300781 -5.132812 6.578125 -4.3125 6.578125 -3.28125 C 6.578125 -2.238281 6.300781 -1.410156 5.75 -0.796875 C 5.195312 -0.179688 4.460938 0.125 3.546875 0.125 C 2.617188 0.125 1.878906 -0.179688 1.328125 -0.796875 C 0.773438 -1.410156 0.5 -2.238281 0.5 -3.28125 C 0.5 -4.3125 0.773438 -5.132812 1.328125 -5.75 C 1.878906 -6.375 2.617188 -6.6875 3.546875 -6.6875 Z M 3.546875 -6.6875 "/>
</symbol>
<symbol overflow="visible" id="glyph0-2">
<path style="stroke:none;" d="M 0.890625 -6.5625 L 2.078125 -6.5625 L 4.984375 -1.078125 L 4.984375 -6.5625 L 5.84375 -6.5625 L 5.84375 0 L 4.65625 0 L 1.75 -5.484375 L 1.75 0 L 0.890625 0 Z M 0.890625 -6.5625 "/>
</symbol>
<symbol overflow="visible" id="glyph0-3">
<path style="stroke:none;" d="M 0.890625 -6.5625 L 1.765625 -6.5625 L 1.765625 -3.875 L 5 -3.875 L 5 -6.5625 L 5.890625 -6.5625 L 5.890625 0 L 5 0 L 5 -3.125 L 1.765625 -3.125 L 1.765625 0 L 0.890625 0 Z M 0.890625 -6.5625 "/>
</symbol>
</g>
</defs>
<g id="surface55265">
<rect x="0" y="0" width="300" height="300" style="fill:rgb(100%,100%,100%);fill-opacity:1;stroke:none;"/>
<path style="fill:none;stroke-width:1.2;stroke-linecap:butt;stroke-linejoin:miter;stroke:rgb(0%,0%,0%);stroke-opacity:1;stroke-miterlimit:10;" d="M 35.25 163.597656 L 44.046875 169.855469 "/>
<path style="fill:none;stroke-width:1.2;stroke-linecap:butt;stroke-linejoin:miter;stroke:rgb(100%,0%,0%);stroke-opacity:1;stroke-miterlimit:10;" d="M 44.046875 169.855469 L 52.84375 176.113281 "/>
<path style="fill:none;stroke-width:1.2;stroke-linecap:butt;stroke-linejoin:miter;stroke:rgb(100%,0%,0%);stroke-opacity:1;stroke-miterlimit:10;" d="M 52.84375 176.113281 L 62.660156 171.625 "/>
<path style="fill:none;stroke-width:1.2;stroke-linecap:butt;stroke-linejoin:miter;stroke:rgb(0%,0%,0%);stroke-opacity:1;stroke-miterlimit:10;" d="M 62.660156 171.625 L 72.476562 167.136719 "/>
<path style=" stroke:none;fill-rule:nonzero;fill:rgb(100%,100%,100%);fill-opacity:1;" d="M 48.84375 170.613281 L 56.84375 170.613281 L 56.84375 181.613281 L 48.84375 181.613281 Z M 48.84375 170.613281 "/>
<g style="fill:rgb(100%,0%,0%);fill-opacity:1;">
  <use xlink:href="#glyph0-1" x="48.84375" y="179.276367"/>
</g>
<path style="fill:none;stroke-width:1.2;stroke-linecap:butt;stroke-linejoin:miter;stroke:rgb(0%,0%,0%);stroke-opacity:1;stroke-miterlimit:10;" d="M 72.476562 167.136719 L 74.523438 145.640625 "/>
<path style="fill:none;stroke-width:1.2;stroke-linecap:butt;stroke-linejoin:miter;stroke:rgb(0%,0%,0%);stroke-opacity:1;stroke-miterlimit:10;" d="M 77.738281 165.46875 L 79.375 148.273438 "/>
<path style="fill:none;stroke-width:1.2;stroke-linecap:butt;stroke-linejoin:miter;stroke:rgb(0%,0%,0%);stroke-opacity:1;stroke-miterlimit:10;" d="M 90.070312 179.652344 L 72.476562 167.136719 "/>
<path style="fill:none;stroke-width:1.2;stroke-linecap:butt;stroke-linejoin:miter;stroke:rgb(0%,0%,0%);stroke-opacity:1;stroke-miterlimit:10;" d="M 74.523438 145.640625 L 94.15625 136.664062 "/>
<path style="fill:none;stroke-width:1.2;stroke-linecap:butt;stroke-linejoin:miter;stroke:rgb(0%,0%,0%);stroke-opacity:1;stroke-miterlimit:10;" d="M 94.15625 136.664062 L 111.75 149.179688 "/>
<path style="fill:none;stroke-width:1.2;stroke-linecap:butt;stroke-linejoin:miter;stroke:rgb(0%,0%,0%);stroke-opacity:1;stroke-miterlimit:10;" d="M 92.972656 142.054688 L 107.046875 152.070312 "/>
<path style="fill:none;stroke-width:1.2;stroke-linecap:butt;stroke-linejoin:miter;stroke:rgb(0%,0%,0%);stroke-opacity:1;stroke-miterlimit:10;" d="M 94.15625 136.664062 L 95.179688 125.917969 "/>
<path style="fill:none;stroke-width:1.2;stroke-linecap:butt;stroke-linejoin:miter;stroke:rgb(100%,0%,0%);stroke-opacity:1;stroke-miterlimit:10;" d="M 95.179688 125.917969 L 96.199219 115.171875 "/>
<path style="fill:none;stroke-width:1.2;stroke-linecap:butt;stroke-linejoin:miter;stroke:rgb(0%,0%,0%);stroke-opacity:1;stroke-miterlimit:10;" d="M 111.75 149.179688 L 109.707031 170.675781 "/>
<path style="fill:none;stroke-width:1.2;stroke-linecap:butt;stroke-linejoin:miter;stroke:rgb(0%,0%,0%);stroke-opacity:1;stroke-miterlimit:10;" d="M 111.75 149.179688 L 131.386719 140.203125 "/>
<path style="fill:none;stroke-width:1.2;stroke-linecap:butt;stroke-linejoin:miter;stroke:rgb(0%,0%,0%);stroke-opacity:1;stroke-miterlimit:10;" d="M 109.707031 170.675781 L 90.070312 179.652344 "/>
<path style="fill:none;stroke-width:1.2;stroke-linecap:butt;stroke-linejoin:miter;stroke:rgb(0%,0%,0%);stroke-opacity:1;stroke-miterlimit:10;" d="M 105.632812 166.953125 L 89.921875 174.132812 "/>
<path style="fill:none;stroke-width:1.2;stroke-linecap:butt;stroke-linejoin:miter;stroke:rgb(0%,0%,0%);stroke-opacity:1;stroke-miterlimit:10;" d="M 131.386719 140.203125 L 140.183594 146.460938 "/>
<path style="fill:none;stroke-width:1.2;stroke-linecap:butt;stroke-linejoin:miter;stroke:rgb(0%,0%,100%);stroke-opacity:1;stroke-miterlimit:10;" d="M 140.183594 146.460938 L 148.976562 152.71875 "/>
<path style="fill:none;stroke-width:1.2;stroke-linecap:butt;stroke-linejoin:miter;stroke:rgb(0%,0%,100%);stroke-opacity:1;stroke-miterlimit:10;" d="M 148.976562 152.71875 L 158.796875 148.230469 "/>
<path style="fill:none;stroke-width:1.2;stroke-linecap:butt;stroke-linejoin:miter;stroke:rgb(0%,0%,0%);stroke-opacity:1;stroke-miterlimit:10;" d="M 158.796875 148.230469 L 168.613281 143.742188 "/>
<path style=" stroke:none;fill-rule:nonzero;fill:rgb(100%,100%,100%);fill-opacity:1;" d="M 141.976562 147.21875 L 155.976562 147.21875 L 155.976562 158.21875 L 141.976562 158.21875 Z M 141.976562 147.21875 "/>
<g style="fill:rgb(0%,0%,100%);fill-opacity:1;">
  <use xlink:href="#glyph0-2" x="141.976562" y="155.881836"/>
  <use xlink:href="#glyph0-3" x="148.954102" y="155.881836"/>
</g>
<path style="fill:none;stroke-width:1.2;stroke-linecap:butt;stroke-linejoin:miter;stroke:rgb(0%,0%,0%);stroke-opacity:1;stroke-miterlimit:10;" d="M 168.613281 143.742188 L 177.410156 150 "/>
<path style="fill:none;stroke-width:1.2;stroke-linecap:butt;stroke-linejoin:miter;stroke:rgb(0%,0%,100%);stroke-opacity:1;stroke-miterlimit:10;" d="M 177.410156 150 L 186.207031 156.257812 "/>
<path style="fill:none;stroke-width:1.2;stroke-linecap:butt;stroke-linejoin:miter;stroke:rgb(0%,0%,0%);stroke-opacity:1;stroke-miterlimit:10;" d="M 173.320312 140.855469 L 180.355469 145.859375 "/>
<path style="fill:none;stroke-width:1.2;stroke-linecap:butt;stroke-linejoin:miter;stroke:rgb(0%,0%,100%);stroke-opacity:1;stroke-miterlimit:10;" d="M 180.355469 145.859375 L 187.394531 150.867188 "/>
<path style="fill:none;stroke-width:1.2;stroke-linecap:butt;stroke-linejoin:miter;stroke:rgb(0%,0%,0%);stroke-opacity:1;stroke-miterlimit:10;" d="M 170.65625 122.246094 L 168.613281 143.742188 "/>
<path style="fill:none;stroke-width:1.2;stroke-linecap:butt;stroke-linejoin:miter;stroke:rgb(0%,0%,100%);stroke-opacity:1;stroke-miterlimit:10;" d="M 186.207031 156.257812 L 196.023438 151.769531 "/>
<path style="fill:none;stroke-width:1.2;stroke-linecap:butt;stroke-linejoin:miter;stroke:rgb(0%,0%,0%);stroke-opacity:1;stroke-miterlimit:10;" d="M 196.023438 151.769531 L 205.84375 147.28125 "/>
<path style=" stroke:none;fill-rule:nonzero;fill:rgb(100%,100%,100%);fill-opacity:1;" d="M 183.207031 150.757812 L 190.207031 150.757812 L 190.207031 161.757812 L 183.207031 161.757812 Z M 183.207031 150.757812 "/>
<g style="fill:rgb(0%,0%,100%);fill-opacity:1;">
  <use xlink:href="#glyph0-2" x="183.207031" y="159.420898"/>
</g>
<path style="fill:none;stroke-width:1.2;stroke-linecap:butt;stroke-linejoin:miter;stroke:rgb(0%,0%,0%);stroke-opacity:1;stroke-miterlimit:10;" d="M 205.84375 147.28125 L 206.863281 136.535156 "/>
<path style="fill:none;stroke-width:1.2;stroke-linecap:butt;stroke-linejoin:miter;stroke:rgb(0%,0%,100%);stroke-opacity:1;stroke-miterlimit:10;" d="M 206.863281 136.535156 L 207.886719 125.785156 "/>
<path style="fill:none;stroke-width:1.2;stroke-linecap:butt;stroke-linejoin:miter;stroke:rgb(0%,0%,0%);stroke-opacity:1;stroke-miterlimit:10;" d="M 200.988281 144.648438 L 201.808594 136.054688 "/>
<path style="fill:none;stroke-width:1.2;stroke-linecap:butt;stroke-linejoin:miter;stroke:rgb(0%,0%,100%);stroke-opacity:1;stroke-miterlimit:10;" d="M 201.808594 136.054688 L 202.625 127.457031 "/>
<path style="fill:none;stroke-width:1.2;stroke-linecap:butt;stroke-linejoin:miter;stroke:rgb(0%,0%,0%);stroke-opacity:1;stroke-miterlimit:10;" d="M 205.84375 147.28125 L 223.433594 159.796875 "/>
<path style="fill:none;stroke-width:1.2;stroke-linecap:butt;stroke-linejoin:miter;stroke:rgb(0%,0%,100%);stroke-opacity:1;stroke-miterlimit:10;" d="M 207.886719 125.785156 L 199.089844 119.527344 "/>
<path style="fill:none;stroke-width:1.2;stroke-linecap:butt;stroke-linejoin:miter;stroke:rgb(0%,0%,0%);stroke-opacity:1;stroke-miterlimit:10;" d="M 199.089844 119.527344 L 190.292969 113.269531 "/>
<path style=" stroke:none;fill-rule:nonzero;fill:rgb(100%,100%,100%);fill-opacity:1;" d="M 204.886719 120.285156 L 211.886719 120.285156 L 211.886719 131.285156 L 204.886719 131.285156 Z M 204.886719 120.285156 "/>
<g style="fill:rgb(0%,0%,100%);fill-opacity:1;">
  <use xlink:href="#glyph0-2" x="204.886719" y="128.948242"/>
</g>
<path style="fill:none;stroke-width:1.2;stroke-linecap:butt;stroke-linejoin:miter;stroke:rgb(0%,0%,0%);stroke-opacity:1;stroke-miterlimit:10;" d="M 190.292969 113.269531 L 170.65625 122.246094 "/>
<path style="fill:none;stroke-width:1.2;stroke-linecap:butt;stroke-linejoin:miter;stroke:rgb(0%,0%,0%);stroke-opacity:1;stroke-miterlimit:10;" d="M 190.441406 118.789062 L 174.734375 125.96875 "/>
<path style="fill:none;stroke-width:1.2;stroke-linecap:butt;stroke-linejoin:miter;stroke:rgb(0%,0%,0%);stroke-opacity:1;stroke-miterlimit:10;" d="M 223.433594 159.796875 L 221.390625 181.289062 "/>
<path style="fill:none;stroke-width:1.2;stroke-linecap:butt;stroke-linejoin:miter;stroke:rgb(0%,0%,0%);stroke-opacity:1;stroke-miterlimit:10;" d="M 228.289062 162.425781 L 226.652344 179.621094 "/>
<path style="fill:none;stroke-width:1.2;stroke-linecap:butt;stroke-linejoin:miter;stroke:rgb(0%,0%,0%);stroke-opacity:1;stroke-miterlimit:10;" d="M 243.070312 150.820312 L 223.433594 159.796875 "/>
<path style="fill:none;stroke-width:1.2;stroke-linecap:butt;stroke-linejoin:miter;stroke:rgb(0%,0%,0%);stroke-opacity:1;stroke-miterlimit:10;" d="M 221.390625 181.289062 L 238.984375 193.808594 "/>
<path style="fill:none;stroke-width:1.2;stroke-linecap:butt;stroke-linejoin:miter;stroke:rgb(0%,0%,0%);stroke-opacity:1;stroke-miterlimit:10;" d="M 238.984375 193.808594 L 258.621094 184.828125 "/>
<path style="fill:none;stroke-width:1.2;stroke-linecap:butt;stroke-linejoin:miter;stroke:rgb(0%,0%,0%);stroke-opacity:1;stroke-miterlimit:10;" d="M 238.835938 188.289062 L 254.546875 181.105469 "/>
<path style="fill:none;stroke-width:1.2;stroke-linecap:butt;stroke-linejoin:miter;stroke:rgb(0%,0%,0%);stroke-opacity:1;stroke-miterlimit:10;" d="M 258.621094 184.828125 L 260.664062 163.335938 "/>
<path style="fill:none;stroke-width:1.2;stroke-linecap:butt;stroke-linejoin:miter;stroke:rgb(0%,0%,0%);stroke-opacity:1;stroke-miterlimit:10;" d="M 260.664062 163.335938 L 243.070312 150.820312 "/>
<path style="fill:none;stroke-width:1.2;stroke-linecap:butt;stroke-linejoin:miter;stroke:rgb(0%,0%,0%);stroke-opacity:1;stroke-miterlimit:10;" d="M 255.960938 166.222656 L 241.886719 156.210938 "/>
<path style="fill:none;stroke-width:1.2;stroke-linecap:butt;stroke-linejoin:miter;stroke:rgb(0%,0%,0%);stroke-opacity:1;stroke-miterlimit:10;" d="M 243.070312 150.820312 L 244.09375 140.070312 "/>
<path style="fill:none;stroke-width:1.2;stroke-linecap:butt;stroke-linejoin:miter;stroke:rgb(100%,0%,0%);stroke-opacity:1;stroke-miterlimit:10;" d="M 244.09375 140.070312 L 245.113281 129.324219 "/>
<path style="fill:none;stroke-width:1.2;stroke-linecap:butt;stroke-linejoin:miter;stroke:rgb(100%,0%,0%);stroke-opacity:1;stroke-miterlimit:10;" d="M 245.113281 129.324219 L 254.933594 124.835938 "/>
<path style="fill:none;stroke-width:1.2;stroke-linecap:butt;stroke-linejoin:miter;stroke:rgb(0%,0%,0%);stroke-opacity:1;stroke-miterlimit:10;" d="M 254.933594 124.835938 L 264.75 120.347656 "/>
<path style=" stroke:none;fill-rule:nonzero;fill:rgb(100%,100%,100%);fill-opacity:1;" d="M 241.113281 123.824219 L 249.113281 123.824219 L 249.113281 134.824219 L 241.113281 134.824219 Z M 241.113281 123.824219 "/>
<g style="fill:rgb(100%,0%,0%);fill-opacity:1;">
  <use xlink:href="#glyph0-1" x="241.113281" y="132.487305"/>
</g>
<path style="fill:none;stroke-width:1.2;stroke-linecap:butt;stroke-linejoin:miter;stroke:rgb(100%,0%,0%);stroke-opacity:1;stroke-miterlimit:10;" d="M 96.199219 115.171875 L 106.019531 110.683594 "/>
<path style="fill:none;stroke-width:1.2;stroke-linecap:butt;stroke-linejoin:miter;stroke:rgb(0%,0%,0%);stroke-opacity:1;stroke-miterlimit:10;" d="M 106.019531 110.683594 L 115.835938 106.191406 "/>
<path style=" stroke:none;fill-rule:nonzero;fill:rgb(100%,100%,100%);fill-opacity:1;" d="M 92.199219 109.671875 L 100.199219 109.671875 L 100.199219 120.671875 L 92.199219 120.671875 Z M 92.199219 109.671875 "/>
<g style="fill:rgb(100%,0%,0%);fill-opacity:1;">
  <use xlink:href="#glyph0-1" x="92.199219" y="118.334961"/>
</g>
</g>
</svg>

<svg xmlns="http://www.w3.org/2000/svg" xmlns:xlink="http://www.w3.org/1999/xlink" width="300pt" height="300pt" viewBox="0 0 300 300"><defs><symbol overflow="visible"><path d="M.453 1.594v-7.938h4.5v7.938zm.5-.5h3.5v-6.938h-3.5zm0 0"/></symbol><symbol overflow="visible" id="a"><path d="M3.547-5.953c-.65 0-1.164.242-1.547.72-.375.48-.563 1.13-.563 1.952 0 .835.188 1.49.563 1.967.383.48.898.72 1.547.72.644 0 1.156-.24 1.53-.72.376-.476.564-1.132.564-1.968 0-.822-.187-1.474-.562-1.954-.375-.477-.887-.72-1.53-.72zm0-.734c.914 0 1.648.312 2.203.937.55.617.828 1.438.828 2.47 0 1.042-.277 1.87-.828 2.483-.555.617-1.29.922-2.203.922-.93 0-1.668-.305-2.22-.922C.774-1.41.5-2.237.5-3.28c0-1.033.273-1.853.828-2.47.55-.625 1.29-.938 2.22-.938zm0 0"/></symbol><symbol overflow="visible" id="b"><path d="M.89-6.563H2.08l2.906 5.485v-5.484h.86V0H4.656L1.75-5.484V0H.89zm0 0"/></symbol><symbol overflow="visible" id="c"><path d="M.89-6.563h.876v2.688H5v-2.688h.89V0H5v-3.125H1.766V0H.89zm0 0"/></symbol></defs><g><path fill="#fff" d="M0 0h300v300H0z"/><path d="M35.25 163.598l8.797 6.257" stroke-width="1.2" stroke="#000" stroke-miterlimit="10" fill="none"/><path d="M44.047 169.855l8.797 6.258M52.844 176.113l9.816-4.488" stroke-width="1.2" stroke="#f00" stroke-miterlimit="10" fill="none"/><path d="M62.66 171.625l9.817-4.488" stroke-width="1.2" stroke="#000" stroke-miterlimit="10" fill="none"/><path d="M48.844 170.613h8v11h-8zm0 0" fill="#fff"/><use xlink:href="#a" x="48.844" y="179.276" fill="#f00"/><path d="M72.477 167.137l2.046-21.496M77.738 165.47l1.637-17.197M90.07 179.652l-17.593-12.515M74.523 145.64l19.633-8.976M94.156 136.664l17.594 12.516M92.973 142.055l14.074 10.015M94.156 136.664l1.024-10.746" stroke-width="1.2" stroke="#000" stroke-miterlimit="10" fill="none"/><path d="M95.18 125.918l1.02-10.746" stroke-width="1.2" stroke="#f00" stroke-miterlimit="10" fill="none"/><path d="M111.75 149.18l-2.043 21.496M111.75 149.18l19.637-8.977M109.707 170.676l-19.637 8.976M105.633 166.953l-15.71 7.18M131.387 140.203l8.797 6.258" stroke-width="1.2" stroke="#000" stroke-miterlimit="10" fill="none"/><path d="M140.184 146.46l8.793 6.26M148.977 152.72l9.82-4.49" stroke-width="1.2" stroke="#00f" stroke-miterlimit="10" fill="none"/><path d="M158.797 148.23l9.816-4.488" stroke-width="1.2" stroke="#000" stroke-miterlimit="10" fill="none"/><path d="M141.977 147.22h14v11h-14zm0 0" fill="#fff"/><g fill="#00f"><use xlink:href="#b" x="141.977" y="155.882"/><use xlink:href="#c" x="148.954" y="155.882"/></g><path d="M168.613 143.742L177.41 150" stroke-width="1.2" stroke="#000" stroke-miterlimit="10" fill="none"/><path d="M177.41 150l8.797 6.258" stroke-width="1.2" stroke="#00f" stroke-miterlimit="10" fill="none"/><path d="M173.32 140.855l7.035 5.004" stroke-width="1.2" stroke="#000" stroke-miterlimit="10" fill="none"/><path d="M180.355 145.86l7.04 5.007" stroke-width="1.2" stroke="#00f" stroke-miterlimit="10" fill="none"/><path d="M170.656 122.246l-2.043 21.496" stroke-width="1.2" stroke="#000" stroke-miterlimit="10" fill="none"/><path d="M186.207 156.258l9.816-4.488" stroke-width="1.2" stroke="#00f" stroke-miterlimit="10" fill="none"/><path d="M196.023 151.77l9.82-4.49" stroke-width="1.2" stroke="#000" stroke-miterlimit="10" fill="none"/><path d="M183.207 150.758h7v11h-7zm0 0" fill="#fff"/><use xlink:href="#b" x="183.207" y="159.421" fill="#00f"/><path d="M205.844 147.28l1.02-10.745" stroke-width="1.2" stroke="#000" stroke-miterlimit="10" fill="none"/><path d="M206.863 136.535l1.024-10.75" stroke-width="1.2" stroke="#00f" stroke-miterlimit="10" fill="none"/><path d="M200.988 144.648l.82-8.593" stroke-width="1.2" stroke="#000" stroke-miterlimit="10" fill="none"/><path d="M201.81 136.055l.815-8.598" stroke-width="1.2" stroke="#00f" stroke-miterlimit="10" fill="none"/><path d="M205.844 147.28l17.59 12.517" stroke-width="1.2" stroke="#000" stroke-miterlimit="10" fill="none"/><path d="M207.887 125.785l-8.797-6.258" stroke-width="1.2" stroke="#00f" stroke-miterlimit="10" fill="none"/><path d="M199.09 119.527l-8.797-6.257" stroke-width="1.2" stroke="#000" stroke-miterlimit="10" fill="none"/><path d="M204.887 120.285h7v11h-7zm0 0" fill="#fff"/><use xlink:href="#b" x="204.887" y="128.948" fill="#00f"/><path d="M190.293 113.27l-19.637 8.976M190.44 118.79l-15.706 7.18M223.434 159.797l-2.043 21.492M228.29 162.426l-1.638 17.195M243.07 150.82l-19.636 8.977M221.39 181.29l17.594 12.52M238.984 193.81l19.637-8.982M238.836 188.29l15.71-7.185M258.62 184.828l2.044-21.492M260.664 163.336L243.07 150.82M255.96 166.223l-14.073-10.012M243.07 150.82l1.024-10.75" stroke-width="1.2" stroke="#000" stroke-miterlimit="10" fill="none"/><path d="M244.094 140.07l1.02-10.746M245.113 129.324l9.82-4.488" stroke-width="1.2" stroke="#f00" stroke-miterlimit="10" fill="none"/><path d="M254.934 124.836l9.816-4.488" stroke-width="1.2" stroke="#000" stroke-miterlimit="10" fill="none"/><path d="M241.113 123.824h8v11h-8zm0 0" fill="#fff"/><use xlink:href="#a" x="241.113" y="132.487" fill="#f00"/><path d="M96.2 115.172l9.82-4.488" stroke-width="1.2" stroke="#f00" stroke-miterlimit="10" fill="none"/><path d="M106.02 110.684l9.816-4.493" stroke-width="1.2" stroke="#000" stroke-miterlimit="10" fill="none"/><path d="M92.2 109.672h8v11h-8zm0 0" fill="#fff"/><use xlink:href="#a" x="92.199" y="118.335" fill="#f00"/></g></svg>
